www/assets/icons/wb_twilight.svg

<svg width="24" height="24" viewBox="0 0 24 24" xmlns="http://www.w3.org/2000/svg" fill='currentColor'><path d="M19.0759 6.53981L16.9552 8.66201L18.37 10.0758L20.4907 7.95361L19.0759 6.53981Z"/><path d="M22 18H2V20H22V18Z"/><path d="M13 4H11V7H13V4Z"/><path d="M4.95674 6.51064L3.54254 7.92484L5.66384 10.0461L7.07804 8.63194L4.95674 6.51064Z"/><path d="M5 16H19C19 12.13 15.87 9 12 9C8.13 9 5 12.13 5 16Z"/></svg>

<svg xmlns="http://www.w3.org/2000/svg" width="24" height="24" viewBox="0 0 24 24" fill='currentColor'><path d="m19.076 6.54-2.12 2.122 1.414 1.414 2.12-2.122zM22 18H2v2h20zM13 4h-2v3h2zM4.957 6.51 3.543 7.926l2.12 2.121 1.415-1.414zM5 16h14c0-3.87-3.13-7-7-7s-7 3.13-7 7"/></svg>
